src/assets/icons/sino.svg

<svg width="36" height="39" viewBox="0 0 36 39" fill="none" xmlns="http://www.w3.org/2000/svg">
<rect width="32" height="32" rx="10" fill="white"/>
<g clip-path="url(#clip0_6_77)">
<path d="M25.6342 20.5671C24.8148 19.6751 23.2817 18.3332 23.2817 13.9375C23.2817 10.5988 20.9711 7.92617 17.8557 7.27047V6.375C17.8557 5.61574 17.2483 5 16.4994 5C15.7504 5 15.1431 5.61574 15.1431 6.375V7.27047C12.0276 7.92617 9.71704 10.5988 9.71704 13.9375C9.71704 18.3332 8.18389 19.6751 7.36451 20.5671C7.11005 20.8443 6.99724 21.1756 6.99936 21.5C7.00402 22.2047 7.54985 22.875 8.36074 22.875H24.638C25.4489 22.875 25.9951 22.2047 25.9994 21.5C26.0015 21.1756 25.8887 20.8439 25.6342 20.5671ZM9.86335 20.8125C10.7633 19.6107 11.7472 17.6186 11.7519 13.9624C11.7519 13.9538 11.7494 13.9461 11.7494 13.9375C11.7494 11.2795 13.8758 9.125 16.4994 9.125C19.1229 9.125 21.2494 11.2795 21.2494 13.9375C21.2494 13.9461 21.2468 13.9538 21.2468 13.9624C21.2515 17.6191 22.2354 19.6111 23.1354 20.8125H9.86335ZM16.4994 27C17.9973 27 19.2124 25.7689 19.2124 24.25H13.7863C13.7863 25.7689 15.0014 27 16.4994 27Z" fill="#4FA1C1"/>
</g>
<rect x="22" y="24" width="13.6727" height="14.0155" rx="4" fill="white"/>
<path d="M31.1667 30.6172V31.2095C31.1667 31.3491 31.0531 31.4633 30.9142 31.4633H27.3795C27.2406 31.4633 27.127 31.3491 27.127 31.2095V30.6172C27.127 30.4776 27.2406 30.3634 27.3795 30.3634H30.9142C31.0531 30.3634 31.1667 30.4776 31.1667 30.6172ZM30.9142 32.1402H27.3795C27.2406 32.1402 27.127 32.2544 27.127 32.394V32.9863C27.127 33.1259 27.2406 33.2401 27.3795 33.2401H30.9142C31.0531 33.2401 31.1667 33.1259 31.1667 32.9863V32.394C31.1667 32.2544 31.0531 32.1402 30.9142 32.1402ZM33.1865 28.1614V35.1862C33.1865 35.7467 32.7342 36.2015 32.1766 36.2015H26.1171C25.5595 36.2015 25.1072 35.7467 25.1072 35.1862V26.3867C25.1072 25.8261 25.5595 25.3713 26.1171 25.3713H30.4113C30.6786 25.3713 30.9352 25.4792 31.1246 25.6696L32.8899 27.4443C33.0792 27.6326 33.1865 27.8927 33.1865 28.1614ZM30.4934 26.4692V28.0789H32.0945L30.4934 26.4692ZM32.1766 35.1862V29.0942H29.9884C29.7086 29.0942 29.4835 28.8679 29.4835 28.5865V26.3867H26.1171V35.1862H32.1766Z" fill="#4FA1C1"/>
<defs>
<clipPath id="clip0_6_77">
<rect width="19" height="22" fill="white" transform="translate(7 5)"/>
</clipPath>
</defs>
</svg>

<svg xmlns="http://www.w3.org/2000/svg" width="36" height="39" fill="none"><rect width="32" height="32" fill="#fff" rx="10"/><g clip-path="url(#a)"><path fill="#4FA1C1" d="M25.634 20.567c-.82-.892-2.352-2.234-2.352-6.63 0-3.338-2.31-6.01-5.426-6.667v-.895c0-.76-.608-1.375-1.357-1.375s-1.356.616-1.356 1.375v.895c-3.115.656-5.426 3.329-5.426 6.668 0 4.395-1.533 5.737-2.352 6.63a1.352 1.352 0 0 0-.366.932c.005.705.55 1.375 1.362 1.375h16.277c.81 0 1.357-.67 1.361-1.375a1.352 1.352 0 0 0-.365-.933Zm-15.77.245c.9-1.201 1.883-3.193 1.888-6.85l-.003-.024c0-2.659 2.127-4.813 4.75-4.813 2.624 0 4.75 2.155 4.75 4.813l-.002.024c.005 3.657.988 5.65 1.888 6.85H9.863ZM16.498 27c1.498 0 2.713-1.231 2.713-2.75h-5.426c0 1.519 1.215 2.75 2.713 2.75Z"/></g><rect width="13.673" height="14.015" x="22" y="24" fill="#fff" rx="4"/><path fill="#4FA1C1" d="M31.167 30.617v.592c0 .14-.114.254-.253.254H27.38a.254.254 0 0 1-.252-.254v-.592c0-.14.114-.254.253-.254h3.534c.14 0 .253.115.253.254Zm-.253 1.523H27.38a.254.254 0 0 0-.252.254v.592c0 .14.114.254.253.254h3.534a.254.254 0 0 0 .253-.254v-.592a.254.254 0 0 0-.253-.254Zm2.273-3.979v7.025c0 .56-.453 1.016-1.01 1.016h-6.06c-.558 0-1.01-.455-1.01-1.016v-8.8c0-.56.453-1.015 1.01-1.015h4.294c.268 0 .524.108.714.299l1.765 1.774c.19.189.297.449.297.717Zm-2.694-1.692v1.61h1.601l-1.6-1.61Zm1.684 8.717v-6.092h-2.189a.505.505 0 0 1-.505-.508v-2.2h-3.366v8.8h6.06Z"/><defs><clipPath id="a"><path fill="#fff" d="M7 5h19v22H7z"/></clipPath></defs></svg>
